X:1
T:[ID 3-39]
T:[ID 3-39]
T:Bezeichnung standardisiert: Polonaise Polonoise
T:Urheber unbekannt Datum in der hier transkribierten schriftlichen Quelle: 1776 - 1791
C:Urheber unbekannt
C:Datum in der hier transkribierten schriftlichen Quelle: 1776 - 1791
L:1/8
M:3/4
K:G
V:1 treble 
V:1
 d>c BB B/G/B/d/ |{d} cc/B/ TB2 A2 | b>a gg g/d/g/b/ |{b} aa/g/ Tg2 f2 | d/g/g/d/ d/B/B/G/ e2 | %5
 d/g/b/d/{d} cA/c/ B2 | d/g/g/d/ d/B/B/G/ e2 | d/g/b/d/{d} cA/c/ B2 | %8
{f} gg/d/ e(3e/f/g/ a(3a/b/c'/ | b/a/g/f/ g2 G2 :: a>g ff f/d/f/a/ |{a} gg/f/ Tf2 e2 | %12
 d'/^c'/b/a/ b/a/g/f/ g/f/e/d/ | ^c/d/e/c/ d2 D2 | dd/e/_ff/e/ f2 | e/g/e/c/ d/_f/d/B/ c2 | %16
 ee/^f/ gg/f/ g2 | f/a/f/d/ e/g/e/^c/ d2!D.C.! || %18

